assets/media/icons/assetsmediaicons/vr-headset.svg

<svg xmlns="http://www.w3.org/2000/svg" width="1632" height="1632" viewBox="0 0 24 24"><path d="M489.13 316.6c22.18-3.76 44.26-8.56 66.8-9.52 42.06-2.5 84.18 4.94 124.04 18.08 54.69 17.83 105.41 45.38 157.54 69.26-28.21 23.31-61.75 38.83-95.4 52.54-31.09-19.28-62.14-39.16-96.27-52.74-34.97-14.18-73.28-19.82-110.87-16.69-20.61 1.49-40.68 6.62-60.93 10.41-72.06 14.3-144.11 28.68-216.17 43-12.24 2.57-24.41 5.89-35.8 11.17-12.06 5.33-22.41 13.69-32.37 22.19-15.18-16.29-17.92-40.82-12.25-61.67 1.25-3.58 1.57-7.88 4.66-10.46 9.92-9.58 21.83-16.86 34.19-22.85 12.24-5.87 25.52-9.19 38.8-11.71 78.02-13.63 156.02-27.35 234.03-41.01Z"/><path d="M854.85 406.93c6.67-1.73 13.74-.28 20.03 2.2 41.76 17.36 83.31 35.22 125.22 52.22-12.19.94-24.13 3.66-36.04 6.3C811.33 499.94 658.31 530.94 506 565.2c-13.18 3.53-27.04 4.7-39.64 10.2-11.37 5.12-21.13 13.3-29.2 22.71-10.53 12.21-18.42 26.47-24.89 41.17-9.6 22.21-15.76 45.8-19.37 69.69-5.75 38.14-5.17 77.67 5.07 115.02 3.22 10.85 7.85 21.2 12.23 31.62-36.21-35.38-73.3-69.84-109.94-104.77-21.13-19.1-35.25-44.95-43.09-72.11-6.09-21.31-9.03-43.6-7.88-65.76.97-20.01 5.01-40.05 13.44-58.29 5.68-12.19 13.17-23.7 23.07-32.89 13.02-12.22 29.57-20.72 47.18-23.85 13.21-2.49 26.73-1.69 40.06-.91 49.58 2.97 99.29 4.55 148.96 3.06 47.63-1.42 95.28-5.53 142.12-14.49 36.3-6.97 72.13-16.91 106.29-31.11 25.59-10.81 50.17-24.12 72.71-40.37 3.8-2.56 7.15-6.05 11.73-7.19M287.42 549.41c-9.3 15.05-14.43 32.34-16.77 49.79 35.63 27.49 72.57 53.24 108.52 80.31 5.09-35.96 20.49-70.67 45.05-97.57-35.96-20.31-72.26-39.99-108.39-59.98-11.81 6.27-21.43 16.13-28.41 27.45ZM148.41 446.86c2.03-12.66 7.44-24.67 15.15-34.88-1.84 12.55-3.21 25.63.36 38.01 5.18 17.33 17.63 31.41 31.76 42.23 19.21 14.72 41.03 25.5 62.39 36.7-2.43 7.93-7.85 14.47-10.84 22.17-15 34.68-16.25 73.88-9.53 110.66-14.23-14.92-28.61-29.7-42.58-44.86-11.97-13.08-24.22-26.04-34.2-40.76-7.27-10.44-12.76-22.2-15.24-34.71-2.67-13.31-2.22-26.98-1.66-40.46.88-18.07 1.44-36.22 4.39-54.1Z"/><path d="M1014.61 482.76c12.92-2.89 27.27-.38 37.82 7.82 10.14 8.19 16.48 20.13 20.47 32.34 6.17 19.68 7.75 40.52 7.38 61.05-1.12 35.56-8.47 70.89-21.15 104.12-7.48 19.51-17.25 38.32-30.42 54.61-9.9 12.29-22.14 23.25-37 29.06-148.72 52.52-297.84 105.14-451.52 141.45-15.92 4.48-33.07 5.91-49.2 1.65-13.58-3.47-25.63-11.59-35.12-21.77-10.9-11.71-18.54-26.07-24.12-40.97-7.35-19.41-11-40.02-12.95-60.62-3.55-40.27 1.25-81.24 13.76-119.66 6.57-19.2 15.45-37.95 28.72-53.47 8.22-9.34 17.72-18.21 29.57-22.61 10.75-4.13 22.23-5.68 33.35-8.48 163.1-36.59 326.92-69.81 490.41-104.52m-11.58 35.21c-157.14 34.89-314.96 66.8-471.67 103.63-7.98 2.09-15.68 5.47-22.18 10.61-16.47 12.42-26.72 31.09-34.31 49.87-7.7 20.31-13.07 41.66-14.29 63.39 5.84-24.45 16.1-48.2 32.18-67.69 10.38-12.5 23.94-23.18 40.03-26.92 159.8-35.82 319.57-71.77 479.34-107.73 7.78-1.89 15.89-3.7 23.91-2.17 6.34 1.09 11.93 4.43 17.94 6.54-4-10.92-11.1-21.37-21.69-26.76-8.91-4.84-19.57-4.88-29.26-2.77Z"/></svg>

<?xml version="1.0" encoding="UTF-8" ?>
<!DOCTYPE svg PUBLIC "-//W3C//DTD SVG 1.1//EN" "http://www.w3.org/Graphics/SVG/1.1/DTD/svg11.dtd">
<svg width="1224pt" height="1224pt" viewBox="0 0 1224 1224" version="1.1" xmlns="http://www.w3.org/2000/svg">
<g id="#000000ff">
<path fill="#000000" opacity="1.00" d=" M 489.13 316.60 C 511.31 312.84 533.39 308.04 555.93 307.08 C 597.99 304.58 640.11 312.02 679.97 325.16 C 734.66 342.99 785.38 370.54 837.51 394.42 C 809.30 417.73 775.76 433.25 742.11 446.96 C 711.02 427.68 679.97 407.80 645.84 394.22 C 610.87 380.04 572.56 374.40 534.97 377.53 C 514.36 379.02 494.29 384.15 474.04 387.94 C 401.98 402.24 329.93 416.62 257.87 430.94 C 245.63 433.51 233.46 436.83 222.07 442.11 C 210.01 447.44 199.66 455.80 189.70 464.30 C 174.52 448.01 171.78 423.48 177.45 402.63 C 178.70 399.05 179.02 394.75 182.11 392.17 C 192.03 382.59 203.94 375.31 216.30 369.32 C 228.54 363.45 241.82 360.13 255.10 357.61 C 333.12 343.98 411.12 330.26 489.13 316.60 Z" />
<path fill="#000000" opacity="1.00" d=" M 854.85 406.93 C 861.52 405.20 868.59 406.65 874.88 409.13 C 916.64 426.49 958.19 444.35 1000.10 461.35 C 987.91 462.29 975.97 465.01 964.06 467.65 C 811.33 499.94 658.31 530.94 506.00 565.20 C 492.82 568.73 478.96 569.90 466.36 575.40 C 454.99 580.52 445.23 588.70 437.16 598.11 C 426.63 610.32 418.74 624.58 412.27 639.28 C 402.67 661.49 396.51 685.08 392.90 708.97 C 387.15 747.11 387.73 786.64 397.97 823.99 C 401.19 834.84 405.82 845.19 410.20 855.61 C 373.99 820.23 336.90 785.77 300.26 750.84 C 279.13 731.74 265.01 705.89 257.17 678.73 C 251.08 657.42 248.14 635.13 249.29 612.97 C 250.26 592.96 254.30 572.92 262.73 554.68 C 268.41 542.49 275.90 530.98 285.80 521.79 C 298.82 509.57 315.37 501.07 332.98 497.94 C 346.19 495.45 359.71 496.25 373.04 497.03 C 422.62 500.00 472.33 501.58 522.00 500.09 C 569.63 498.67 617.28 494.56 664.12 485.60 C 700.42 478.63 736.25 468.69 770.41 454.49 C 796.00 443.68 820.58 430.37 843.12 414.12 C 846.92 411.56 850.27 408.07 854.85 406.93 M 287.42 549.41 C 278.12 564.46 272.99 581.75 270.65 599.20 C 306.28 626.69 343.22 652.44 379.17 679.51 C 384.26 643.55 399.66 608.84 424.22 581.94 C 388.26 561.63 351.96 541.95 315.83 521.96 C 304.02 528.23 294.40 538.09 287.42 549.41 Z" />
<path fill="#000000" opacity="1.00" d=" M 148.41 446.86 C 150.44 434.20 155.85 422.19 163.56 411.98 C 161.72 424.53 160.35 437.61 163.92 449.99 C 169.10 467.32 181.55 481.40 195.68 492.22 C 214.89 506.94 236.71 517.72 258.07 528.92 C 255.64 536.85 250.22 543.39 247.23 551.09 C 232.23 585.77 230.98 624.97 237.70 661.75 C 223.47 646.83 209.09 632.05 195.12 616.89 C 183.15 603.81 170.90 590.85 160.92 576.13 C 153.65 565.69 148.16 553.93 145.68 541.42 C 143.01 528.11 143.46 514.44 144.02 500.96 C 144.90 482.89 145.46 464.74 148.41 446.86 Z" />
<path fill="#000000" opacity="1.00" d=" M 1014.61 482.76 C 1027.53 479.87 1041.88 482.38 1052.43 490.58 C 1062.57 498.77 1068.91 510.71 1072.90 522.92 C 1079.07 542.60 1080.65 563.44 1080.28 583.97 C 1079.16 619.53 1071.81 654.86 1059.13 688.09 C 1051.65 707.60 1041.88 726.41 1028.71 742.70 C 1018.81 754.99 1006.57 765.95 991.71 771.76 C 842.99 824.28 693.87 876.90 540.19 913.21 C 524.27 917.69 507.12 919.12 490.99 914.86 C 477.41 911.39 465.36 903.27 455.87 893.09 C 444.97 881.38 437.33 867.02 431.75 852.12 C 424.40 832.71 420.75 812.10 418.80 791.50 C 415.25 751.23 420.05 710.26 432.56 671.84 C 439.13 652.64 448.01 633.89 461.28 618.37 C 469.50 609.03 479.00 600.16 490.85 595.76 C 501.60 591.63 513.08 590.08 524.20 587.28 C 687.30 550.69 851.12 517.47 1014.61 482.76 M 1003.03 517.97 C 845.89 552.86 688.07 584.77 531.36 621.60 C 523.38 623.69 515.68 627.07 509.18 632.21 C 492.71 644.63 482.46 663.30 474.87 682.08 C 467.17 702.39 461.80 723.74 460.58 745.47 C 466.42 721.02 476.68 697.27 492.76 677.78 C 503.14 665.28 516.70 654.60 532.79 650.86 C 692.59 615.04 852.36 579.09 1012.13 543.13 C 1019.91 541.24 1028.02 539.43 1036.04 540.96 C 1042.38 542.05 1047.97 545.39 1053.98 547.50 C 1049.98 536.58 1042.88 526.13 1032.29 520.74 C 1023.38 515.90 1012.72 515.86 1003.03 517.97 Z" />
</g>
</svg>
